src/img/icons/next.svg

<svg width="8" height="12" viewBox="0 0 8 12" fill="none" xmlns="http://www.w3.org/2000/svg">
<path d="M7.33309 5.53176L1.99294 0.191706C1.86943 0.068097 1.70455 0 1.52875 0C1.35294 0 1.18807 0.068097 1.06456 0.191706L0.671291 0.584873C0.41539 0.841066 0.41539 1.25745 0.671291 1.51326L5.15555 5.99751L0.666315 10.4867C0.542804 10.6104 0.474609 10.7751 0.474609 10.9508C0.474609 11.1267 0.542804 11.2915 0.666315 11.4152L1.05958 11.8083C1.18319 11.9319 1.34797 12 1.52377 12C1.69958 12 1.86445 11.9319 1.98796 11.8083L7.33309 6.46336C7.45689 6.33936 7.52489 6.1738 7.5245 5.99781C7.52489 5.82112 7.45689 5.65566 7.33309 5.53176Z" fill="#F2F2F2"/>
</svg>

<svg xmlns="http://www.w3.org/2000/svg" fill="none" viewBox="0 0 8 12"><path fill="#F2F2F2" d="M7.333 5.532L1.993.192A.652.652 0 0 0 1.529 0a.652.652 0 0 0-.464.192L.67.585a.657.657 0 0 0 0 .928l4.485 4.485-4.49 4.489a.652.652 0 0 0-.191.464c0 .176.068.34.191.464l.394.393a.652.652 0 0 0 .464.192c.176 0 .34-.068.464-.192l5.345-5.345a.653.653 0 0 0 .191-.465.652.652 0 0 0-.19-.466z"/></svg>
